X: 385
U:~=!turn!
M:C
L:1/8
K:Bb Lydian
c | AF F/F/F CFAc | AF F/F/F B2 Bd | AF F/F/F CFAc | _eE E/E/E B2 B :| c | Ac c/c/c fc c/c/c | Ac c/c/c f3 a |


